res/skins/LateNight/style/clipping_deck.svg

<svg id="svg17740" width="10" height="15" version="1.1" xmlns="http://www.w3.org/2000/svg"><rect id="rect12208" width="10" height="15" color="#000000" fill="#0f0f0f"/><g id="g15157" fill="#4c1616"><rect id="rect18271" x="2" y="2" width="6" height="1" color="#000000"/><rect id="rect18271-8" x="2" y="4" width="6" height="1" color="#000000"/><rect id="rect18271-0" x="2" y="6" width="6" height="1" color="#000000"/><rect id="rect18271-8-1" x="2" y="8" width="6" height="1" color="#000000"/><rect id="rect18271-0-7" x="2" y="10" width="6" height="1" color="#000000"/><rect id="rect18271-8-1-9" x="2" y="12" width="6" height="1" color="#000000"/></g><path id="rect18333" d="m0 0v15h10v-15h-10zm1 1h8v13h-8v-13z" color="#000000" fill="#2d2d2d"/></svg>

<?xml version="1.0" encoding="UTF-8" standalone="no"?>
<!-- Created with Inkscape (http://www.inkscape.org/) -->

<svg
   xmlns:dc="http://purl.org/dc/elements/1.1/"
   xmlns:cc="http://creativecommons.org/ns#"
   xmlns:rdf="http://www.w3.org/1999/02/22-rdf-syntax-ns#"
   xmlns:svg="http://www.w3.org/2000/svg"
   xmlns="http://www.w3.org/2000/svg"
   version="1.1"
   width="10"
   height="15"
   id="svg17740">
  <defs
     id="defs17742" />
  <metadata
     id="metadata17745">
    <rdf:RDF>
      <cc:Work
         rdf:about="">
        <dc:format>image/svg+xml</dc:format>
        <dc:type
           rdf:resource="http://purl.org/dc/dcmitype/StillImage" />
        <dc:title></dc:title>
      </cc:Work>
    </rdf:RDF>
  </metadata>
  <rect
     width="10"
     height="15"
     x="0"
     y="0"
     id="rect12208"
     style="color:#000000;fill:#0f0f0f;fill-opacity:1;fill-rule:nonzero;stroke:none;stroke-width:0.36000001;marker:none;visibility:visible;display:inline;overflow:visible;enable-background:accumulate" />
  <g
     id="g15157">
    <rect
       width="6"
       height="1"
       x="2"
       y="1.9999826"
       id="rect18271"
       style="color:#000000;fill:#4c1616;fill-opacity:1;fill-rule:nonzero;stroke:none;stroke-width:0.36000001;marker:none;visibility:visible;display:inline;overflow:visible;enable-background:accumulate" />
    <rect
       width="6"
       height="1"
       x="2"
       y="3.9999826"
       id="rect18271-8"
       style="color:#000000;fill:#4c1616;fill-opacity:1;fill-rule:nonzero;stroke:none;stroke-width:0.36000001;marker:none;visibility:visible;display:inline;overflow:visible;enable-background:accumulate" />
    <rect
       width="6"
       height="1"
       x="2"
       y="5.9999828"
       id="rect18271-0"
       style="color:#000000;fill:#4c1616;fill-opacity:1;fill-rule:nonzero;stroke:none;stroke-width:0.36000001;marker:none;visibility:visible;display:inline;overflow:visible;enable-background:accumulate" />
    <rect
       width="6"
       height="1"
       x="2"
       y="7.9999828"
       id="rect18271-8-1"
       style="color:#000000;fill:#4c1616;fill-opacity:1;fill-rule:nonzero;stroke:none;stroke-width:0.36000001;marker:none;visibility:visible;display:inline;overflow:visible;enable-background:accumulate" />
    <rect
       width="6"
       height="1"
       x="2"
       y="9.9999828"
       id="rect18271-0-7"
       style="color:#000000;fill:#4c1616;fill-opacity:1;fill-rule:nonzero;stroke:none;stroke-width:0.36000001;marker:none;visibility:visible;display:inline;overflow:visible;enable-background:accumulate" />
    <rect
       width="6"
       height="1"
       x="2"
       y="11.999983"
       id="rect18271-8-1-9"
       style="color:#000000;fill:#4c1616;fill-opacity:1;fill-rule:nonzero;stroke:none;stroke-width:0.36000001;marker:none;visibility:visible;display:inline;overflow:visible;enable-background:accumulate" />
  </g>
  <path
     d="M 0,0 0,15 10,15 10,0 0,0 z M 1,1 9,1 9,14 1,14 1,1 z"
     id="rect18333"
     style="color:#000000;fill:#2d2d2d;fill-opacity:1;fill-rule:nonzero;stroke:none;stroke-width:0.36000001;marker:none;visibility:visible;display:inline;overflow:visible;enable-background:accumulate" />
</svg>
